X: 2
T:Lovely Nancy. TLY.002
M:3/4
L:1/8
Q:100
S:Wm.Tildesley,Swinton,Lancs.1860s.
R:Air
O:England.
A:Lancashire.
H:1860.
Z:vmp.Taz Tarry.
K:G
B>A|G2G2G>B|A2A2A>c|B2gedB|A4B>A|!
G2G2G>B|A2A2A>c|B>g d>Bc>A|G4:|!
|:B>c|d2d2ge|e2d2B>c|d2d2(3geB|B2A2B>A|!
G2G2G>B|A2A2A>c|B>gd>Bc>A|G4:|!
|:B>A|GDGDGB|ADADAc|BGdBgB|A4B>A|!
GDGDGB|ADADAc|B>gd>Bc>A|G4:|!
|:B>c|dBdBge|ed d2B>c|dBdBgB|B>AA2B>A|!
GDGDGB|ADADAc|B>gd>Bc>A|G4:|
